!!!COM: des Prez, Josquin
!!!CDT: ~1450-1521/08/27
!!!OPR: Missa L'homme arm&eacute; sexti toni
!!!ONM: 2
!!!OTL: Gloria
!!!AGN: Mass; Gloria
!!!SCT: NJE 6.2
!!!SCA: New Josquin Edition 6.2
!!!voices: 4
!!!voices-OPR: 4(-6)
**kern	**text	**kern	**text	**kern	**text	**kern	**text
*staff4	*	*staff3	*	*staff2	*	*staff1	*
*Ivox	*	*Ivox	*	*Ivox	*	*Ivox	*
*I"Bassus	*	*I"Tenor	*	*I"Altus	*	*I"Superius	*
*I'B	*	*I'T	*	*I'A	*	*I'S	*
*>[A,B]	*	*>[A,B]	*	*>[A,B]	*	*>[A,B]	*
*>Gloria[A]	*	*>Gloria[A]	*	*>Gloria[A]	*	*>Gloria[A]	*
*>QuiTollis[B]	*	*>QuiTollis[B]	*	*>QuiTollis[B]	*	*>QuiTollis[B]	*
*clefF4	*	*clefGv2	*	*clefGv2	*	*clefGv2	*
*k[b-]	*	*k[b-]	*	*k[b-]	*	*k[b-]	*
*>A	*	*>A	*	*>A	*	*>A	*
*M3/1	*	*M3/1	*	*M3/1	*	*M3/1	*
*met(O)	*	*met(O)	*	*met(O)	*	*met(O)	*
=1-	=1-	=1-	=1-	=1-	=1-	=1-	=1
!!section: Et in terra pax
!!!OMD: Et in terra pax
0.r	.	0.r	.	0F	Et	0F	Et
.	.	.	.	1F	in	2A	in
.	.	.	.	.	.	2B-	.
=2	=2	=2	=2	=2	=2	=2	=2
0.r	.	0.r	.	1F	ter-	1c	ter-
.	.	.	.	1.B-	-ra	1.d	-ra
.	.	.	.	2A	.	4c	.
.	.	.	.	.	.	4B-	.
=3	=3	=3	=3	=3	=3	=3	=3
0.r	.	0.r	.	1A	pax	2c	.
.	.	.	.	.	.	2f	.
.	.	.	.	2G	.	2e	.
.	.	.	.	2F	.	1d	pax
.	.	.	.	1G	.	.	.
.	.	.	.	.	.	4c	.
.	.	.	.	.	.	4B-	.
=4	=4	=4	=4	=4	=4	=4	=4
0.r	.	0.r	.	0F	.	1A	.
.	.	.	.	.	.	2r	.
.	.	.	.	.	.	2c	ho-
.	.	.	.	2r	.	2c	-mi-
.	.	.	.	2c	ho-	2c	-ni-
=5	=5	=5	=5	=5	=5	=5	=5
0.r	.	0.r	.	2c	-mi-	2.F	-bus
.	.	.	.	2c	-ni-	.	.
.	.	.	.	.	.	4G	.
.	.	.	.	2.F	-bus	4A	.
.	.	.	.	.	.	4F	.
.	.	.	.	.	.	2.c	.
.	.	.	.	4G	.	.	.
.	.	.	.	4A	.	.	.
.	.	.	.	4F	.	4d	.
.	.	.	.	[2c	bo-	4e	.
.	.	.	.	.	.	4c	.
=6	=6	=6	=6	=6	=6	=6	=6
0.r	.	0.r	.	4c]	.	2.g	bo-
.	.	.	.	4B-	.	.	.
.	.	.	.	4c	.	.	.
.	.	.	.	4A	.	4f	.
.	.	.	.	2G	-ne	4g	.
.	.	.	.	.	.	4e	.
.	.	.	.	2.B-	vo-	2d	-ne
.	.	.	.	.	.	2.f	vo-
.	.	.	.	4A	.	.	.
.	.	.	.	4B-	.	.	.
.	.	.	.	4G	.	4e	.
=7	=7	=7	=7	=7	=7	=7	=7
0.r	.	0.r	.	2.F	-lun-	4f	.
.	.	.	.	.	.	4d	.
.	.	.	.	.	.	2.c	-lun-
.	.	.	.	4E	.	.	.
.	.	.	.	4F	.	.	.
.	.	.	.	4D	.	4B-	.
.	.	.	.	2C	.	4c	.
.	.	.	.	.	.	4A	.
.	.	.	.	2.E-	-ta-	2G	.
.	.	.	.	.	.	[2B-	-ta-
.	.	.	.	4D	.	.	.
=8	=8	=8	=8	=8	=8	=8	=8
0.r	.	0.r	.	4E-i	.	4B-]	.
.	.	.	.	4C	.	4A	.
.	.	.	.	1BB-	.	4B-	.
.	.	.	.	.	.	4G	.
.	.	.	.	.	.	1F	.
.	.	.	.	1F	.	.	.
.	.	.	.	.	.	1G	.
.	.	.	.	2Ei	.	.	.
=9	=9	=9	=9	=9	=9	=9	=9
2.FF	Lau-	[0.F	Lau-	0F	.	0F	-tis.
4GG	.	.	.	.	.	.	.
2AA	.	.	.	.	.	.	.
2.BB-	-da-	.	.	.	.	.	.
.	.	.	.	1D	-tis.	1r	.
4C	.	.	.	.	.	.	.
4D	.	.	.	.	.	.	.
4E	.	.	.	.	.	.	.
=10	=10	=10	=10	=10	=10	=10	=10
2F	.	0.F]	.	2D	Lau-	1.A	Lau-
1D	.	.	.	1F	-da-	.	.
4C	.	.	.	4E	.	2B-	-da-
4BB-	.	.	.	4D	.	.	.
1AA	-mus	.	.	1C	-mus	1c	-mus
=11	=11	=11	=11	=11	=11	=11	=11
1GG	te,	[0.B-	-da-	1G	te,	1d	te,
2GG	be-	.	.	2G	be-	2d	be-
2GG	-ne-	.	.	2G	-ne-	2d	-ne-
2GG	-di-	.	.	2G	-di-	2d	-di-
2GG	-ci-	.	.	2G	-ci-	2d	-ci-
=12	=12	=12	=12	=12	=12	=12	=12
1.GG	-mus	0B-]	.	1.G	-mus	1.d	-mus
1.D	te,	.	.	2F	te,	1f	te,
.	.	1A	.	2D	.	.	.
.	.	.	.	[2F	.	4e	.
.	.	.	.	.	.	4d	.
=13	=13	=13	=13	=13	=13	=13	=13
1AA	.	[0.A	.	2F]	.	1c	.
.	.	.	.	2E	.	.	.
2AA	ad-	.	.	1E	.	2c	ad-
2AA	-o-	.	.	.	.	2c	-o-
2AA	-ra-	.	.	2E	ad-	2c	-ra-
2AA	-mus	.	.	2E	-o-	2c	-mus
=14	=14	=14	=14	=14	=14	=14	=14
1.AA	te,	0A]	.	2E	-ra-	1.c	te,
.	.	.	.	2E	-mus	.	.
.	.	.	.	2E	te,	.	.
1.C	.	.	.	2C	.	1e-	.
.	.	1G	.	[1E-i	.	.	.
.	.	.	.	.	.	4d	.
.	.	.	.	.	.	4c	.
=15	=15	=15	=15	=15	=15	=15	=15
1GG	.	[0.G	-mus	2E-]	.	1B-	.
.	.	.	.	2D	.	.	.
2GG	glo-	.	.	1D	.	2B-	glo-
2GG	-ri-	.	.	.	.	2B-	-ri-
2GG	-fi-	.	.	2D	glo-	2B-	-fi-
2GG	-ca-	.	.	2D	-ri-	2B-	-ca-
=16	=16	=16	=16	=16	=16	=16	=16
1.GG	-mus	0G]	.	2D	-fi-	1.B-	-mus
.	.	.	.	1D	-ca-	.	.
1.BB-	te,	.	.	2BB-	-mus	1d	te,
.	.	1F	.	1D	te,	.	.
.	.	.	.	.	.	4c	.
.	.	.	.	.	.	4B-	.
=17	=17	=17	=17	=17	=17	=17	=17
1.FF	.	[0.F	te,	2C	.	1A	.
.	.	.	.	1F	.	.	.
.	.	.	.	.	.	2r	.
1.BB-	.	.	.	2D	.	1d	.
.	.	.	.	1D	.	.	.
.	.	.	.	.	.	4c	.
.	.	.	.	.	.	4B-	.
=18	=18	=18	=18	=18	=18	=18	=18
1.AA	.	0F]	.	2r	.	1c	.
.	.	.	.	1A	.	.	.
.	.	.	.	.	.	2r	.
1.D	.	.	.	2F	.	1f	.
.	.	1r	.	1F	.	.	.
.	.	.	.	.	.	4e	.
.	.	.	.	.	.	4d	.
=19	=19	=19	=19	=19	=19	=19	=19
1.C	glo-	[0.c	te.	2r	.	1e	.
.	.	.	.	1c	glo-	.	.
.	.	.	.	.	.	2r	.
1.F	-ri-	.	.	2A	.	1a	glo-
.	.	.	.	1A	-ri-	.	.
.	.	.	.	.	.	4g	-ri-
.	.	.	.	.	.	4f	.
=20	=20	=20	=20	=20	=20	=20	=20
2E	-fi-	1c]	.	2G	-fi-	2g	-fi-
2.F	-ca-	.	.	2F	.	1a	-ca-
.	.	0F	.	1.A	-ca-	.	.
4E	.	.	.	.	.	.	.
4D	.	.	.	.	.	1f	-mus
4C	.	.	.	.	.	.	.
1D	-mus	.	.	.	.	.	.
.	.	.	.	2B-	-mus	4e	.
.	.	.	.	.	.	4d	.
=21	=21	=21	=21	=21	=21	=21	=21
0.C	te.	0.r	.	0.c	te.	1e	te.
.	.	.	.	.	.	2r	.
.	.	.	.	.	.	2.e	Gra-
.	.	.	.	.	.	4f	.
.	.	.	.	.	.	2g	.
=22	=22	=22	=22	=22	=22	=22	=22
0.r	.	0.r	.	2r	.	2.c	.
.	.	.	.	2.c	Gra-	.	.
.	.	.	.	.	.	4d	.
.	.	.	.	.	.	2e	.
.	.	.	.	4d	.	.	.
.	.	.	.	2e	.	2.A	.
.	.	.	.	2.A	.	.	.
.	.	.	.	.	.	4B-	-ti-
.	.	.	.	.	.	2c	-as
.	.	.	.	4B-	-ti-	.	.
=23	=23	=23	=23	=23	=23	=23	=23
0.r	.	0.r	.	2c	-as	2.F	a-
.	.	.	.	2.F	a-	.	.
.	.	.	.	.	.	4G	.
.	.	.	.	.	.	4A	.
.	.	.	.	4G	.	4B-	.
.	.	.	.	4A	.	2.c	.
.	.	.	.	4B-	.	.	.
.	.	.	.	[1c	-gi-	.	.
.	.	.	.	.	.	4d	.
.	.	.	.	.	.	4e	.
.	.	.	.	.	.	4f	.
=24	=24	=24	=24	=24	=24	=24	=24
0.r	.	0.r	.	2c]	.	4g	-gi-
.	.	.	.	.	.	4a	.
.	.	.	.	2.d	-mus	1b-	-mus
.	.	.	.	4c	.	.	.
.	.	.	.	2A	.	1a	ti-
.	.	.	.	1B-	ti-	.	.
.	.	.	.	.	.	2g	.
=25	=25	=25	=25	=25	=25	=25	=25
2r	.	[0.c	prop-	1A	-bi	2a	-bi
2.A	prop-	.	.	.	.	2.cc	prop-
.	.	.	.	2r	.	.	.
4G	.	.	.	.	.	4b-	.
2F	.	.	.	2.c	prop-	2a	.
2E	-ter	.	.	.	.	2g	-ter
.	.	.	.	4B-	.	.	.
2F	ma-	.	.	2A	.	2f	ma-
=26	=26	=26	=26	=26	=26	=26	=26
2C	-gnam	0.c_	.	2G	-ter	2e	.
2r	.	.	.	2F	ma-	2A	.
2.C	glo-	.	.	2E	.	2G	-gnam
.	.	.	.	2A	.	2.c	glo-
4D	.	.	.	.	.	.	.
2E	.	.	.	2G	-gnam	.	.
.	.	.	.	.	.	4B-	.
2F	.	.	.	[2c	glo-	2A	.
=27	=27	=27	=27	=27	=27	=27	=27
2E	.	0.c]	.	4c]	.	2G	.
.	.	.	.	4B-	.	.	.
2F	-ri-	.	.	2A	.	2F	-ri-
2C	-am	.	.	2G	.	2E	-am
2.FF	tu-	.	.	2.F	.	4F	tu-
.	.	.	.	.	.	4G	.
.	.	.	.	.	.	4A	.
4GG	.	.	.	4E	.	4B-	.
4AA	.	.	.	2C	-ri-	4c	.
4BB-	.	.	.	.	.	4d	.
=28	=28	=28	=28	=28	=28	=28	=28
4C	.	2c	-ter	1G	-am	4e	.
4D	.	.	.	.	.	4f	.
1E-	.	1B-	ma-	.	.	1g	.
.	.	.	.	2r	.	.	.
2F	.	2A	.	1.c	tu-	1f	.
1C	.	1G	.	.	.	.	.
.	.	.	.	.	.	2e	.
=29	=29	=29	=29	=29	=29	=29	=29
[0.FF	-am.	[0.F	-gnam...	2.A	-am.	2f	-am,
.	.	.	.	.	.	2.F	tu-
.	.	.	.	4B-	.	.	.
.	.	.	.	1c	.	.	.
.	.	.	.	.	.	4G	.
.	.	.	.	.	.	4A	.
.	.	.	.	.	.	4B-	.
.	.	.	.	1r	.	2c	.
.	.	.	.	.	.	2d	.
=30	=30	=30	=30	=30	=30	=30	=30
0FF]	.	0.F]	.	1C	Do-	0.A	-am.
.	.	.	.	2D	-mi-	.	.
.	.	.	.	2C	-ne	.	.
1r	.	.	.	1F	de-	.	.
=31	=31	=31	=31	=31	=31	=31	=31
1C	Do-	0.r	.	1E	-us	0.r	.
2D	-mi-	.	.	2r	.	.	.
2C	-ne	.	.	2.c	rex	.	.
1F	de-	.	.	.	.	.	.
.	.	.	.	4B-	.	.	.
.	.	.	.	2A	.	.	.
=32	=32	=32	=32	=32	=32	=32	=32
1E	-us	0.r	.	2G	ce-	0.r	.
.	.	.	.	2.C	-le-	.	.
2.C	rex	.	.	.	.	.	.
.	.	.	.	4D	.	.	.
.	.	.	.	4E	.	.	.
4D	.	.	.	4F	.	.	.
4E	.	.	.	4G	.	.	.
4F	.	.	.	4A	.	.	.
2D	.	.	.	4B-	.	.	.
.	.	.	.	4c	.	.	.
=33	=33	=33	=33	=33	=33	=33	=33
2C	.	0.r	.	4A	.	0.r	.
.	.	.	.	4G	.	.	.
2D	ce-	.	.	1B-	.	.	.
1AA	-le-	.	.	.	.	.	.
.	.	.	.	1A	.	.	.
1BB-	.	.	.	.	.	.	.
.	.	.	.	2G	.	.	.
=34	=34	=34	=34	=34	=34	=34	=34
0AA	-stis,	0.r	.	1A	-stis,	2r	.
.	.	.	.	.	.	2.c	rex
.	.	.	.	1.c	rex	.	.
.	.	.	.	.	.	4d	.
.	.	.	.	.	.	4e	.
.	.	.	.	.	.	4f	.
1r	.	.	.	.	.	4g	.
.	.	.	.	.	.	4a	.
.	.	.	.	2d	.	4b-	.
.	.	.	.	.	.	4cc	.
=35	=35	=35	=35	=35	=35	=35	=35
0.r	.	0.r	.	2c	.	4a	ce-
.	.	.	.	.	.	4g	.
.	.	.	.	2d	ce-	1b-	-le-
.	.	.	.	1A	-le-	.	.
.	.	.	.	.	.	1a	.
.	.	.	.	1B-	.	.	.
.	.	.	.	.	.	2g	.
=36	=36	=36	=36	=36	=36	=36	=36
2r	.	[0.c	de-	2A	-stis,	1a	-stis,
2.AA	de-	.	.	2.c	de-	.	.
.	.	.	.	.	.	1r	.
4BB-	.	.	.	4B-	.	.	.
2C	.	.	.	2G	-us	.	.
2FF	-us	.	.	2.A	pa-	2r	.
[2AA	pa-	.	.	.	.	[2cc	de-
.	.	.	.	4G	.	.	.
=37	=37	=37	=37	=37	=37	=37	=37
4AA]	.	0.c]	.	1E	-ter-	4cc]	.
4BB-	.	.	.	.	.	4b-	.
2C	.	.	.	.	.	2g	-us
1FF	.	.	.	1F	.	2.a	pa-
.	.	.	.	.	.	4g	.
1C	-ter	.	.	1G	-om-	1e	-ter
=38	=38	=38	=38	=38	=38	=38	=38
2r	.	[0.F	-us	2A	-ni-	2r	.
2.D	om-	.	.	2.F	.	2.f	om-
4C	.	.	.	4G	.	4e	.
2AA	.	.	.	2A	.	2c	.
2.BB-	-ni-	.	.	2.D	-po-	2.d	-ni-
4AA	-po-	.	.	4E	.	4c	-po-
=39	=39	=39	=39	=39	=39	=39	=39
0FF	-tens.	0.F]	.	2F	-tens.-	1A	-tens.-
.	.	.	.	2C	.	.	.
.	.	.	.	1.c	-Do-	1r	.
1r	.	.	.	.	.	1f	-Do-
.	.	.	.	2c	-mi-	.	.
=40	=40	=40	=40	=40	=40	=40	=40
1.C	Do-	0.r	.	2.c	-ne	2e	-mi-
.	.	.	.	.	.	2.g	.
.	.	.	.	4B-	.	.	.
.	.	.	.	2G	.	.	.
.	.	.	.	.	.	4f	.
2BB-	-mi-	.	.	2.B-	fi-	2.d	-ne
2.D	-ne	.	.	.	.	.	.
.	.	.	.	4A	.	2f	fi-
.	.	.	.	4F	.	.	.
4E	.	.	.	4G	.	4e	.
=41	=41	=41	=41	=41	=41	=41	=41
2.F	fi-	0.r	.	4A	.	1c	-li
.	.	.	.	4B-	.	.	.
.	.	.	.	2c	.	.	.
4E	.	.	.	.	.	.	.
2D	.	.	.	4B-	.	1r	.
.	.	.	.	4AL	.	.	.
2C	.	.	.	1A	.	.	.
2.BB-	.	.	.	.	.	1r	.
.	.	.	.	2G	.	.	.
4AAL	.	.	.	.	.	.	.
=42	=42	=42	=42	=42	=42	=42	=42
1FF	-li	0.r	.	1A	-li	1c	u-
1r	.	.	.	2G	u-	2B-	-ni-
.	.	.	.	2A	-ni-	1A	-ge-
1r	.	.	.	2.B-	-ge-	.	.
.	.	.	.	.	.	2G	-ni-
.	.	.	.	4A	-ni-	.	.
=43	=43	=43	=43	=43	=43	=43	=43
0.r	.	0.r	.	2F	-te,	1A	-te,
.	.	.	.	2c	Je-	.	.
.	.	.	.	4B-	.	2G	Je-
.	.	.	.	4AL	.	.	.
.	.	.	.	1A	-su	2A	-su
.	.	.	.	.	.	2.B-	Chri-
.	.	.	.	2G	Chri-	.	.
.	.	.	.	.	.	4A	.
=44	=44	=44	=44	=44	=44	=44	=44
2.F	Je-	0.r	.	1A	-ste.	2F	.
.	.	.	.	.	.	2c	.
4E	.	.	.	.	.	.	.
2D	-su	.	.	1r	.	2B-	.
2C	Chri-	.	.	.	.	1A	.
1BB-	-ste.	.	.	1D	Do-	.	.
.	.	.	.	.	.	2G	.
=45	=45	=45	=45	=45	=45	=45	=45
0AA	Do-	[0.c	Do-	1.E	.	1A	-ste.
.	.	.	.	.	.	2r	.
.	.	.	.	1.F	-mi-	2.A	Do-
1FF	-mi-	.	.	.	.	.	.
.	.	.	.	.	.	4B-	.
.	.	.	.	.	.	4c	.
.	.	.	.	.	.	4d	.
=46	=46	=46	=46	=46	=46	=46	=46
1C	-ne	1c]	.	0.G	-ne	4e	.
.	.	.	.	.	.	4f	.
.	.	.	.	.	.	1g	.
0GG	de-	0B-	-mi-	.	.	.	.
.	.	.	.	.	.	4f	-mi-
.	.	.	.	.	.	4e	-ne
.	.	.	.	.	.	1d	de-
=47	=47	=47	=47	=47	=47	=47	=47
1AA	-us,	[0.A	-ne	2C	de-	1c	-us,
.	.	.	.	2.F	.	.	.
2r	.	.	.	.	.	2.F	a-
.	.	.	.	4G	.	.	.
2.FF	a-	.	.	4A	.	.	.
.	.	.	.	4B-	.	4G	.
.	.	.	.	1c	-us,	4A	.
4GG	.	.	.	.	.	4B-	.
4AA	.	.	.	.	.	4c	.
4BB-	.	.	.	.	.	4d	.
=48	=48	=48	=48	=48	=48	=48	=48
2C	.	1A]	.	2r	.	2e	.
2D	-gnus	.	.	2F	a-	2f	.
1E-	de-	0G	de-	4E-i	-gnus	2g	-gnus
.	.	.	.	4C	.	.	.
.	.	.	.	2.G	de-	2.b-	de-
1EE-	-i,	.	.	.	.	.	.
.	.	.	.	4F	.	8aL	.
.	.	.	.	.	.	8gJ	.
.	.	.	.	4E-i	.	2b-	.
.	.	.	.	4D	.	.	.
=49	=49	=49	=49	=49	=49	=49	=49
2.FF	fi-	1F	-us,	2C	-i,	2a	-i,
.	.	.	.	2F	fi-	2.cc	fi-
4GG	.	.	.	.	.	.	.
2AA	-li-	2r	.	2E	-li-	.	.
.	.	.	.	.	.	4b-	.
2FF	-us	2.c	fi-	2F	-us	4a	.
.	.	.	.	.	.	4g	.
2.C	pa-	.	.	4C	pa-	2a	-li-
.	.	4B-	-li-	4D	.	.	.
.	.	2G	-us	4E	.	[2g	-us
4BB-	.	.	.	4F	.	.	.
=50	=50	=50	=50	=50	=50	=50	=50
2GG	.	2.B-	pa-	2G	.	4g]	.
.	.	.	.	.	.	8fL	.
.	.	.	.	.	.	8eJ	.
2.BB-	.	.	.	1F	.	4d	.
.	.	4A	.	.	.	4c	.
.	.	2F	.	.	.	4d	.
4AA	.	.	.	.	.	4c	.
2FF	.	2A	.	1.c	.	1f	pa-
1C	.	1G	.	.	.	.	.
.	.	.	.	.	.	2e	.
=51	=51	=51	=51	=51	=51	=51	=51
[0.FFl	-tris.	[0.Fl	-tris.	2.A	.	[0.fl	-tris.
.	.	.	.	4B-	.	.	.
.	.	.	.	2c	.	.	.
.	.	.	.	2C	.	.	.
.	.	.	.	1D	.	.	.
=52	=52	=52	=52	=52	=52	=52	=52
0.FFl]	.	0.Fl]	.	0.Cl	-tris.	0.fl]	.
!!LO:LB:i:g=z	.		.		.		.
=53||	=53||	=53||	=53||	=53||	=53||	=53||	=53||
*>B	*	*>B	*	*>B	*	*>B	*
!!section: Qui tollis
!!!OMD: Qui tollis
*M2/1	*	*M2/1	*	*M2/1	*	*M2/1	*
*met(C|)	*	*met(C|)	*	*met(C|)	*	*met(C|)	*
0r	.	0r	.	1.F	Qui	0f	Qui
.	.	.	.	2G	.	.	.
=54	=54	=54	=54	=54	=54	=54	=54
0r	.	0r	.	1A	tol-	1c	tol-
.	.	.	.	1A	-lis	[1f	-lis
=55	=55	=55	=55	=55	=55	=55	=55
0r	.	0r	.	1B-	pec-	1f]	.
.	.	.	.	2A	.	[1f	pec-
.	.	.	.	[2B-	-ca-	.	.
=56	=56	=56	=56	=56	=56	=56	=56
0r	.	0r	.	4B-]	.	2f]	.
.	.	.	.	4A	.	.	.
.	.	.	.	4G	.	4g	.
.	.	.	.	4F	.	4a	.
.	.	.	.	1G	.	1b-	-ca-
=57	=57	=57	=57	=57	=57	=57	=57
0r	.	0r	.	2F	-ta	1a	-ta
.	.	.	.	2.c	mun-	.	.
.	.	.	.	.	.	2g	mun-
.	.	.	.	4B-	.	.	.
.	.	.	.	4A	.	[2a	.
.	.	.	.	4G	.	.	.
=58	=58	=58	=58	=58	=58	=58	=58
0r	.	0r	.	1F	.	4a]	.
.	.	.	.	.	.	4g	.
.	.	.	.	.	.	4f	.
.	.	.	.	.	.	4e	.
.	.	.	.	2G	.	2d	.
.	.	.	.	[2A	.	2c	.
=59	=59	=59	=59	=59	=59	=59	=59
0r	.	0r	.	4A]	.	1.f	.
.	.	.	.	4G	.	.	.
.	.	.	.	4F	.	.	.
.	.	.	.	4E	.	.	.
.	.	.	.	4D	.	.	.
.	.	.	.	4C	.	.	.
.	.	.	.	[2c	.	2e	.
=60	=60	=60	=60	=60	=60	=60	=60
0r	.	0r	.	2c]	.	1d	.
.	.	.	.	2Bni	.	.	.
.	.	.	.	1c	-di,	1c	-di,
=61	=61	=61	=61	=61	=61	=61	=61
0FF	mi-	1r	.	1r	.	1r	.
.	.	1F	mi-	1c	mi-	[1f	mi-
=62	=62	=62	=62	=62	=62	=62	=62
1FF	-se-	1F	-se-	1c	-se-	1f]	.
[1BB-	-re-	1F	-re-	[1d	-re-	1f	-se-
=63	=63	=63	=63	=63	=63	=63	=63
1BB-]	.	1.D	-re	1d]	.	1f	-re-
1BB-	-re	.	.	1D	-re	1g	-re
.	.	4C	.	.	.	.	.
.	.	4BB-	.	.	.	.	.
=64	=64	=64	=64	=64	=64	=64	=64
1AA	no-	1C	no-	2E	no-	1a	no-
.	.	.	.	2F	.	.	.
[1GG	.	1D	.	[1G	.	[1b-	.
=65	=65	=65	=65	=65	=65	=65	=65
1GG]	.	1E	.	1G]	.	2b-]	.
.	.	.	.	.	.	4a	.
.	.	.	.	.	.	4g	.
1FF	-bis.	1F	-bis.	1C	-bis.	1a	-bis.
=66	=66	=66	=66	=66	=66	=66	=66
0r	.	2r	.	1r	.	0r	.
.	.	2F	Qui	.	.	.	.
.	.	2E	.	1c	Qui	.	.
.	.	[2F	tol-	.	.	.	.
=67	=67	=67	=67	=67	=67	=67	=67
0r	.	2F]	.	1c	tol-	0r	.
.	.	4E	.	.	.	.	.
.	.	4D	.	.	.	.	.
.	.	2C	-lis	1c	-lis	.	.
.	.	[2F	pec-	.	.	.	.
=68	=68	=68	=68	=68	=68	=68	=68
0r	.	4F]	.	1d	pec-	0r	.
.	.	4E	.	.	.	.	.
.	.	4D	.	.	.	.	.
.	.	4C	.	.	.	.	.
.	.	2BB-	.	1d	-ca-	.	.
.	.	[2B-	-ca-	.	.	.	.
=69	=69	=69	=69	=69	=69	=69	=69
0r	.	4B-]	.	4G	-ta	0r	.
.	.	4A	.	4A	.	.	.
.	.	4G	.	4B-	.	.	.
.	.	4F	.	4c	.	.	.
.	.	2B-	-ta	2d	.	.	.
.	.	[2A	mun-	[2c	mun-	.	.
=70	=70	=70	=70	=70	=70	=70	=70
0r	.	2A]	.	2c]	.	0r	.
.	.	1G	.	2B-	.	.	.
.	.	.	.	1A	.	.	.
.	.	2F#i	.	.	.	.	.
=71	=71	=71	=71	=71	=71	=71	=71
0r	.	0G	-di,	0G	-di,	0r	.
=72	=72	=72	=72	=72	=72	=72	=72
1r	.	1r	.	1r	.	1r	.
[1C	su-	[1c	su-	[1E	su-	[1g	su-
=73	=73	=73	=73	=73	=73	=73	=73
1C]	.	1c]	.	1E]	.	1g]	.
1C	-sci-	1c	-sci-	1E	-sci-	1g	-sci-
=74	=74	=74	=74	=74	=74	=74	=74
0FF	-pe	1c	-pe	2.F	-pe	1.a	-pe
.	.	.	.	4E	.	.	.
.	.	2r	.	4D	.	.	.
.	.	.	.	4C	.	.	.
.	.	[2c	de-	[2F	.	4g	.
.	.	.	.	.	.	4f	.
=75	=75	=75	=75	=75	=75	=75	=75
0r	.	2c]	.	2F]	.	1a	.
.	.	2c	-pre-	4E	.	.	.
.	.	.	.	4D	.	.	.
.	.	2c	-ca-	1C	.	2r	.
.	.	2c	-ti-	.	.	[2g	de-
=76	=76	=76	=76	=76	=76	=76	=76
0r	.	1c	-o-	0r	.	2g]	.
.	.	.	.	.	.	2g	-pre-
.	.	2.C	-nem	.	.	2g	-ca-
.	.	.	.	.	.	2g	-ti-
.	.	4D	.	.	.	.	.
=77	=77	=77	=77	=77	=77	=77	=77
0r	.	4E	.	0r	.	1.g	-o-
.	.	4F	.	.	.	.	.
.	.	4G	.	.	.	.	.
.	.	4A	.	.	.	.	.
.	.	4B-	.	.	.	.	.
.	.	4c	.	.	.	.	.
.	.	[2d	.	.	.	[2f	.
=78	=78	=78	=78	=78	=78	=78	=78
0r	.	2d]	.	0r	.	2f]	.
.	.	1c	.	.	.	2e	-nem
.	.	.	.	.	.	1d	no-
.	.	2B-	.	.	.	.	.
=79	=79	=79	=79	=79	=79	=79	=79
1r	.	2.c	no-	[0C	no-	1.c	.
.	.	4B-	.	.	.	.	.
[1C	de-	2A	.	.	.	.	.
.	.	2G	.	.	.	2B-	.
=80	=80	=80	=80	=80	=80	=80	=80
2C]	.	1c	-stram,	1C]	.	2A	.
2C	-pre-	.	.	.	.	2G	.
2C	-ca-	2r	.	[1E-	.	1c	-stram,
2C	-ti-	[2c	no-	.	.	.	.
=81	=81	=81	=81	=81	=81	=81	=81
1.C	-o-	4c]	.	2E-]	.	2r	.
.	.	4B-	.	.	.	.	.
.	.	2G	.	4D	.	1c	no-
.	.	.	.	4C	.	.	.
.	.	2A	.	2E-i	.	.	.
[2BB-	.	4B-	.	[2D	.	2F	.
.	.	4A	.	.	.	.	.
=82	=82	=82	=82	=82	=82	=82	=82
2BB-]	.	4G	.	2D]	.	2G	.
.	.	4F	.	.	.	.	.
2AA	-nem	1F	.	1C	.	2A	.
1GG	no-	.	.	.	.	1B-	.
.	.	2E	.	2BB-	.	.	.
=83	=83	=83	=83	=83	=83	=83	=83
0FF	-stram.	0F	-stram.	0C	-stram.	[0A	-stram.
=84	=84	=84	=84	=84	=84	=84	=84
0r	.	2r	.	1r	.	0A]	.
.	.	2D	Qui	.	.	.	.
.	.	2C	se-	[1c	Qui	.	.
.	.	[2F	-des	.	.	.	.
=85	=85	=85	=85	=85	=85	=85	=85
0r	.	4F]	.	1c]	.	0r	.
.	.	4G	.	.	.	.	.
.	.	4A	.	.	.	.	.
.	.	4B-	.	.	.	.	.
.	.	2c	.	1F	se-	.	.
.	.	[2F	ad	.	.	.	.
=86	=86	=86	=86	=86	=86	=86	=86
0r	.	2F]	.	1.c	-des	0r	.
.	.	4E	.	.	.	.	.
.	.	4D	.	.	.	.	.
.	.	2.C	dex-	.	.	.	.
.	.	.	.	4B-	.	.	.
.	.	4D	.	4A	.	.	.
=87	=87	=87	=87	=87	=87	=87	=87
0r	.	4E	-te-	2.G	ad	0r	.
.	.	4F	.	.	.	.	.
.	.	1G	-ram	.	.	.	.
.	.	.	.	4A	.	.	.
.	.	.	.	4B-	.	.	.
.	.	.	.	4c	.	.	.
.	.	2F	.	[2d	dex-	.	.
=88	=88	=88	=88	=88	=88	=88	=88
0r	.	1.G	pa-	4d]	.	0r	.
.	.	.	.	4c	.	.	.
.	.	.	.	4d	-te-	.	.
.	.	.	.	4B-	.	.	.
.	.	.	.	2e-i	-ram	.	.
.	.	[2F	.	[2d	pa-	.	.
=89	=89	=89	=89	=89	=89	=89	=89
0r	.	2F]	.	4d]	.	0r	.
.	.	.	.	4c	.	.	.
.	.	2E	.	1c	.	.	.
.	.	1D	.	.	.	.	.
.	.	.	.	2B-	.	.	.
=90	=90	=90	=90	=90	=90	=90	=90
0r	.	0C	-tris,	2c	.	0r	.
.	.	.	.	2A	.	.	.
.	.	.	.	2G	.	.	.
.	.	.	.	[2c	.	.	.
=91	=91	=91	=91	=91	=91	=91	=91
0F	mi-	1r	.	4c]	.	1r	.
.	.	.	.	4B-	.	.	.
.	.	.	.	4A	.	.	.
.	.	.	.	4G	.	.	.
.	.	1c	mi-	1F	-tris,	2r	.
.	.	.	.	.	.	[2A	mi-
=92	=92	=92	=92	=92	=92	=92	=92
1F	-se-	1.c	-se-	1r	.	2A]	.
.	.	.	.	.	.	2A	-se-
[1E	-re-	.	.	[1C	mi-	2G	-re
.	.	4B-	.	.	.	[2c	.
.	.	4A	.	.	.	.	.
=93	=93	=93	=93	=93	=93	=93	=93
1E]	.	1G	-re-	0C]	.	2c]	.
.	.	.	.	.	.	4B-	.
.	.	.	.	.	.	4A	.
1E	-re	1G	-re	.	.	2G	re
.	.	.	.	.	.	[2c	no-
=94	=94	=94	=94	=94	=94	=94	=94
1F	no-	1A	no-	2.F	-se-	1c]	.
.	.	.	.	4G	.	.	.
[1D	.	[1F	.	2A	-re-	2d	.
.	.	.	.	2F	-re	[2f	.
=95	=95	=95	=95	=95	=95	=95	=95
1D]	.	1F]	.	2.A	no-	2f]	.
.	.	.	.	.	.	4e	.
.	.	.	.	4B-	.	4d	.
1C	-bis.	1G	-bis.	1c	-bis.	1e	-bis.
=96	=96	=96	=96	=96	=96	=96	=96
0r	.	0r	.	1r	.	2r	.
.	.	.	.	.	.	1a	Quo-
.	.	.	.	1F	Quo-	.	.
.	.	.	.	.	.	2a	-ni-
=97	=97	=97	=97	=97	=97	=97	=97
0r	.	0r	.	2E	-ni-	2g	-am
.	.	.	.	1F	-am	2f	tu
.	.	.	.	.	.	2.cc	so-
.	.	.	.	2F	tu	.	.
.	.	.	.	.	.	4b-	.
=98	=98	=98	=98	=98	=98	=98	=98
0r	.	0r	.	2E	so-	2g	.
.	.	.	.	2F	-lus	2f	-lus
.	.	.	.	1G	sanc-	1b-	sanc-
=99	=99	=99	=99	=99	=99	=99	=99
0r	.	2.c	Tu	1F	-tus.	2.a	.
.	.	4B-	.	.	.	4g	.
.	.	4A	.	1r	.	4f	.
.	.	4G	.	.	.	4e	.
.	.	[2B-	so-	.	.	[2d	.
=100	=100	=100	=100	=100	=100	=100	=100
0r	.	2B-]	.	0r	.	2d]	.
.	.	1A	.	.	.	2c	.
.	.	.	.	.	.	1B-	.
.	.	2G	.	.	.	.	.
=101	=101	=101	=101	=101	=101	=101	=101
0F	Tu	2.A	-lus	2r	.	0A	-tus.
.	.	.	.	2.c	Tu	.	.
.	.	4B-	.	.	.	.	.
.	.	1c	.	.	.	.	.
.	.	.	.	4B-	.	.	.
.	.	.	.	4A	.	.	.
.	.	.	.	4G	.	.	.
=102	=102	=102	=102	=102	=102	=102	=102
1F	so-	1r	.	2F	.	0r	.
.	.	.	.	2A	.	.	.
[1E	-lus	2r	.	1G	so-	.	.
.	.	[2C	do-	.	.	.	.
=103	=103	=103	=103	=103	=103	=103	=103
1E]	.	4C]	.	1C	-lus	0r	.
.	.	4D	.	.	.	.	.
.	.	4E	.	.	.	.	.
.	.	4F	.	.	.	.	.
1E	do-	2G	.	1r	.	.	.
.	.	[2c	.	.	.	.	.
=104	=104	=104	=104	=104	=104	=104	=104
1F	.	4c]	.	1.A	do-	1r	.
.	.	4B-	.	.	.	.	.
.	.	4A	.	.	.	.	.
.	.	4G	.	.	.	.	.
[1D	-mi-	[1F	-mi-	.	.	1f	tu
.	.	.	.	4G	.	.	.
.	.	.	.	4F	.	.	.
=105	=105	=105	=105	=105	=105	=105	=105
1D]	.	1F]	.	2A	.	1f	so-
.	.	.	.	2B-	-mi-	.	.
1C	-nus,	1G	-nus,	1c	-nus,	2.e	-lus
.	.	.	.	.	.	4f	.
=106	=106	=106	=106	=106	=106	=106	=106
0r	.	0r	.	1r	.	2g	.
.	.	.	.	.	.	2a	al-
.	.	.	.	1C	tu	2g	.
.	.	.	.	.	.	[2a	-tis-
=107	=107	=107	=107	=107	=107	=107	=107
0r	.	0r	.	1F	so-	2a]	.
.	.	.	.	.	.	2f	.
.	.	.	.	2E	-lus	2g	.
.	.	.	.	[2F	al-	2a	.
=108	=108	=108	=108	=108	=108	=108	=108
0r	.	0r	.	4F]	.	2.cc	.
.	.	.	.	4G	.	.	.
.	.	.	.	4A	.	.	.
.	.	.	.	4B-	.	4b-	.
.	.	.	.	2c	.	4a	.
.	.	.	.	.	.	4g	.
.	.	.	.	[2d	-tis-	[2b-	.
=109	=109	=109	=109	=109	=109	=109	=109
0r	.	0r	.	2d]	.	2b-]	.
.	.	.	.	2A	.	1a	.
.	.	.	.	1B-	-si-	.	.
.	.	.	.	.	.	2g	-si-
=110	=110	=110	=110	=110	=110	=110	=110
1r	.	1.c	Je-	0A	-mus,	0a	-mus,
1F	Je-	.	.	.	.	.	.
.	.	4B-	.	.	.	.	.
.	.	4A	.	.	.	.	.
=111	=111	=111	=111	=111	=111	=111	=111
0G	-su	2B-	-su	0r	.	0r	.
.	.	4c	.	.	.	.	.
.	.	4d	.	.	.	.	.
.	.	2e-i	.	.	.	.	.
.	.	[2d	Chri-	.	.	.	.
=112	=112	=112	=112	=112	=112	=112	=112
1F	Chri-	4d]	.	0r	.	0r	.
.	.	4c	.	.	.	.	.
.	.	4B-	.	.	.	.	.
.	.	4A	.	.	.	.	.
1E	.	2G	.	.	.	.	.
.	.	[2c	.	.	.	.	.
=113	=113	=113	=113	=113	=113	=113	=113
0D	.	2c]	.	1r	.	1r	.
.	.	4B-	.	.	.	.	.
.	.	4A	.	.	.	.	.
.	.	1B-	.	1d	Je-	1f	Je-
=114	=114	=114	=114	=114	=114	=114	=114
0C	-ste.	0E-	-ste.	1.e-	-su	0g	-su
.	.	.	.	4d	.	.	.
.	.	.	.	4c	.	.	.
=115	=115	=115	=115	=115	=115	=115	=115
0r	.	0r	.	4d	.	1f	Chri-
.	.	.	.	4c	.	.	.
.	.	.	.	4B-	.	.	.
.	.	.	.	4A	.	.	.
.	.	.	.	2G	.	1e	.
.	.	.	.	2A	.	.	.
=116	=116	=116	=116	=116	=116	=116	=116
0r	.	1r	.	2B-	Chri-	0d	.
.	.	.	.	2c	.	.	.
.	.	1B-	Je-	1G	-ste,	.	.
=117	=117	=117	=117	=117	=117	=117	=117
0r	.	0c	-su	1r	.	1.c	.
.	.	.	.	1C	Chri-	.	.
.	.	.	.	.	.	4B-	.
.	.	.	.	.	.	4A	.
=118	=118	=118	=118	=118	=118	=118	=118
0r	.	1B-	Chri-	1E-	.	2.G	.
.	.	.	.	.	.	4F	.
.	.	1A	.	1F	.	[1f	.
=119	=119	=119	=119	=119	=119	=119	=119
0r	.	0G	.	0C	.	1f]	.
.	.	.	.	.	.	1e	.
=120	=120	=120	=120	=120	=120	=120	=120
0r	.	[0F	-ste.	0c	-ste.	0f	-ste.
=121	=121	=121	=121	=121	=121	=121	=121
*M3/1	*	*	*	*M3/1	*	*M3/1	*
*met(3)	*	*	*	*met(3)	*	*met(3)	*
!	!	!LO:N:vis=0	!	!	!	!	!
0FF	Cum	0.F]	.	1.A	Cum	0f	Cum
.	.	.	.	2B-	.	.	.
1FF	sanc-	.	.	1c	sanc-	1f	sanc-
=122	=122	=122	=122	=122	=122	=122	=122
*	*	*M3/1	*	*	*	*	*
*	*	*met(3)	*	*	*	*	*
0BB-	-to	0D	sanc-	2F	-to	0f	-to
.	.	.	.	1B-	spi-	.	.
.	.	.	.	2A	.	.	.
1BB-	spi-	1D	-to	2G	.	1g	spi-
.	.	.	.	2F	.	.	.
=123	=123	=123	=123	=123	=123	=123	=123
1AA	.	1C	spi-	0F	.	1a	.
0GG	-ri-	0BB-	-ri-	.	.	0b-	-ri-
.	.	.	.	1E	-ri-	.	.
=124	=124	=124	=124	=124	=124	=124	=124
0FF	-tu	0C	-tu	0F	-tu	0a	-tu
1r	.	1r	.	1r	.	1r	.
=125	=125	=125	=125	=125	=125	=125	=125
1C	in	1c	in	1E	in	1g	in
1C	glo-	1c	glo-	1E	glo-	1g	glo-
1C	-ri-	1c	-ri-	1E	-ri-	1g	-ri-
=126	=126	=126	=126	=126	=126	=126	=126
0FF	-a	0c	-a	0F	-a	0a	-a
1r	.	1r	.	1r	.	1r	.
=127	=127	=127	=127	=127	=127	=127	=127
0.r	.	0C	de-	0.r	.	0g	de-
.	.	1D	.	.	.	1f	.
=128	=128	=128	=128	=128	=128	=128	=128
0.r	.	1C	.	0c	de-	1e	.
.	.	0G	.	.	.	0d	.
.	.	.	.	1B-	.	.	.
=129	=129	=129	=129	=129	=129	=129	=129
0C	de-	0C	-i	1A	.	0c	-i
.	.	.	.	0G	.	.	.
1BB-	.	1r	.	.	.	1d	pa-
=130	=130	=130	=130	=130	=130	=130	=130
1AA	.	0c	pa-	1C	.	1c	.
0GG	-i	.	.	0G	-i	1.d	.
.	.	1B-	.	.	.	.	.
.	.	.	.	.	.	2e	.
=131	=131	=131	=131	=131	=131	=131	=131
1FF	pa-	1A	.	1C	pa-	1f	.
1EE	.	1.G	.	1E	.	1g	.
[1FF	.	.	.	2D	.	[1a	.
.	.	2F	.	2C	.	.	.
=132	=132	=132	=132	=132	=132	=132	=132
1FF]	.	0F	.	0C	.	1a]	.
0GG	-tris.	.	.	.	.	0b-	.
.	.	1E	.	1BB-	.	.	.
=133	=133	=133	=133	=133	=133	=133	=133
*M2/1	*	*M2/1	*	*M2/1	*	*M2/1	*
*met(C|)	*	*met(C|)	*	*met(C|)	*	*met(C|)	*
1.FF	A-	1.F	-tris.	0C	-tris.	1a	-tris.
.	.	.	.	.	.	[1cc	A-
2GG	.	4E	.	.	.	.	.
.	.	4D	.	.	.	.	.
=134	=134	=134	=134	=134	=134	=134	=134
2AA	.	2C	A-	1.c	A-	2cc]	.
2BB-	.	2D	.	.	.	2b-	.
2C	.	2E	.	.	.	1g	-men,
2D	.	2F	.	4B-	.	.	.
.	.	.	.	4A	.	.	.
=135	=135	=135	=135	=135	=135	=135	=135
2E	.	2G	.	2G	.	2r	.
1F	.	2A	.	2F	.	1a	a-
.	.	1F	-men,	1A	.	.	.
2D	.	.	.	.	.	4g	.
.	.	.	.	.	.	4f	.
=136	=136	=136	=136	=136	=136	=136	=136
2E	.	2r	.	2G	.	1g	.
1C	.	1c	a-	2E	.	.	.
.	.	.	.	2G	.	2e	.
[2D	.	2A	.	2F	.	[2f	.
=137	=137	=137	=137	=137	=137	=137	=137
2D]	.	1B-	.	2D	.	2f]	.
2BB-	.	.	.	2F	.	4e	.
.	.	.	.	.	.	4d	.
2C	.	2G	.	2E	.	1e	.
[2AA	.	[2A	.	2C	.	.	.
=138	=138	=138	=138	=138	=138	=138	=138
2AA]	.	2A]	.	2E	.	2c	.
1BB-	.	2F	.	2D	.	1d	.
.	.	1G	.	2BB-	.	.	.
2GG	.	.	.	2D	.	4c	.
.	.	.	.	.	.	4B-	.
=139	=139	=139	=139	=139	=139	=139	=139
2AA	.	2E	.	2C	.	1c	.
1FF	.	1F	.	1c	.	.	.
.	.	.	.	.	.	2A	.
[2GG	.	2D	.	4B-	.	[2B-	.
.	.	.	.	4A	.	.	.
=140	=140	=140	=140	=140	=140	=140	=140
2GG]	.	1E	.	1G	.	2B-]	.
2EE	.	.	.	.	.	4A	.
.	.	.	.	.	.	4G	.
1FF	.	[1C	.	1F	.	2A	.
.	.	.	.	.	.	[2c	.
=141	=141	=141	=141	=141	=141	=141	=141
0C	-men,	0C]	.	[0E	-men,	2c]	.
.	.	.	.	.	.	4B-	.
.	.	.	.	.	.	4A	.
.	.	.	.	.	.	1G	.
=142	=142	=142	=142	=142	=142	=142	=142
0r	.	0C	-men,	0E]	.	0c	-men,
=143	=143	=143	=143	=143	=143	=143	=143
2.C	a-	0r	.	2r	.	0r	.
.	.	.	.	2.c	a-	.	.
4BB-	.	.	.	.	.	.	.
4AA	.	.	.	.	.	.	.
4GG	.	.	.	4B-	.	.	.
2FF	.	.	.	4A	.	.	.
.	.	.	.	4G	.	.	.
=144	=144	=144	=144	=144	=144	=144	=144
2AA	.	0r	.	4F	.	0r	.
.	.	.	.	4E	.	.	.
2BB-	.	.	.	4D	.	.	.
.	.	.	.	4C	.	.	.
1C	.	.	.	4E	.	.	.
.	.	.	.	4F	.	.	.
.	.	.	.	[2G	.	.	.
=145	=145	=145	=145	=145	=145	=145	=145
1FF	.	0r	.	2G]	.	0r	.
.	.	.	.	1F	.	.	.
1GG	.	.	.	.	.	.	.
.	.	.	.	2E	.	.	.
=146	=146	=146	=146	=146	=146	=146	=146
1FF	-men,	2.c	a-	1F	-men,	2r	.
.	.	.	.	.	.	2.cc	a-
.	.	4B-	.	.	.	.	.
2r	.	4A	.	[1c	A-	.	.
.	.	4G	.	.	.	4b-	.
[2F	a-	2F	.	.	.	4a	.
.	.	.	.	.	.	4g	.
=147	=147	=147	=147	=147	=147	=147	=147
2F]	.	2A	.	2c]	.	4f	.
.	.	.	.	.	.	4e	.
2G	.	2B-	.	2B-	.	4d	.
.	.	.	.	.	.	4c	.
2E	.	1c	.	2G	.	4e	.
.	.	.	.	.	.	4f	.
2C	.	.	.	2c	.	[2g	.
=148	=148	=148	=148	=148	=148	=148	=148
1D	.	1F	.	2A	.	2g]	.
.	.	.	.	2B-	.	1f	.
1C	.	1G	.	[1c	.	.	.
.	.	.	.	.	.	2e	.
=149	=149	=149	=149	=149	=149	=149	=149
2AA	.	[0Fl	-men.	2c]	.	[0fl	-men.
1BB-	.	.	.	1d	.	.	.
4AA	.	.	.	4c	.	.	.
4GG	.	.	.	4B-	.	.	.
=150	=150	=150	=150	=150	=150	=150	=150
[0FFl	-men.	0F_	.	2c	.	0f_	.
.	.	.	.	2d	.	.	.
.	.	.	.	2c	.	.	.
.	.	.	.	2d	.	.	.
=151	=151	=151	=151	=151	=151	=151	=151
0FF]	.	0F]	.	0Al	-men.	0f]	.
==	==	==	==	==	==	==	==
*-	*-	*-	*-	*-	*-	*-	*-
!!!RDF**kern: l=long note in original notation
!!!RDF**kern: i=editorial accidental
!!!ENC: Jesse Rodin 2011/09/04
!!!END: 2011/09/04
!!!SMS: Petrucci 1502
!!!EED: Jesse Rodin
!!!EEV: 2011/10/03
!!attribution-level@Jos: 1 (secure, core group [checkmark])
!!!ONB: Translated from MusicXML and edited on 2011/10/03/ by Craig Sapp
!!muse2ps: T^@{OPR}^u^@{ONM}{. }@{OTL}^C^@{COM}\n@{SCT}^i2I150v90,90,90,120c125z18l2700t130
